X: 25
T:Trunkles, Longborough 1
M:4/4
L:1/8
A:Longborough
P:A(AB3C3)2(AB3D3)2
K:G
P:A
|:d3B  c2e2  |dedc B2G2  |d3B  c2e2|dcBA G4:|
P:B
  c2c2 c2c2  |cABc d2g2  |efed c2A2|d4   d4||
P:C
  e2c2 c>de>f|d2B2 B>cd>e|\
  c2A2 A>Bc>d|B2G2 G2A>B |cBAG F2A2|G4   G4||
P:D
  e4   c4    |c3d  e3f   |d4   B4  |B3c  d3e|
  c4   A4    |A3B  c3d   |\
  B4   G4    |G4   A3B   |cBAG F2A2|G4   G4||
